X:772
%%etbk:tnset id:506,pos:2,rep:3x,ant:
%%etbk:wsite https://thesession.org/tunes/3796
%%etbk:pldat 2016-03-22T16:07,2016-03-20T14:36
T: The Absent-minded Woman
Z: Piano Box Version by Martin Fleischmann
H: Created 2016-03-15 /  Last Modified 2016-03-22
R: reel
M: 4/4
L: 1/8
K: Gmaj
|:!1!G2 G!1!A !2!BAB!3!d|!4!edgd !4!ed!2!BA|!1!GFGA !2!~B3d|!4!eg d!2!B !1!AGEF|
!1!~G3A !2!BA Bd|!4!edgd !4!e!2!e ge|!1!dega bage|1 !1!d!2!BAB G2 (3DEF:|2 dBAB G3e||
|:!3!g2 bg agbg|g/g/g bg aged|g2 bg agbg|ged!2!B !1!A!1!G!2!B!3!d|
!3!g2 bg agbg|g/g/g bg aged|!4!gfgd (3efg !1!d!2!B|1 AGAB G3e:|2 AGAB G2 (3DEF||


